X:185
T:This Masquerade
C:Leon Russell - 1972
N:TablEdited by Dion Morris
L:1/8
Q:1/4=120
M:4/4
K:Ab
|: z/"Fm"z3/2 FG AB zc | "Fm#7"zg zf z2 cB | "Fm7"A3B c2 AF | "Bb9"z4 z4 | "Fm7"z4 AG Ae | 
"Db9"z6 ec | c4 z4 | "C7#5"z4 z4 | "Fm"z2 FG AB zc | "Fm#7"zg zf z_c BA | "Fm7"z2 Bc zA zF | 
"Bb9"z4 z2 CF | "Db7"z4 zA B=B | "C7#5"z=B B4 AF | "Fm7"z8 | z4 "Em7"z4 | "Ebm7"z2 de f2 _gf | 
"Ab7b9"z2 ed z2 ef | "DbM7"zA FA z4 | z7/2z4z/ | "Ebm7"zA de f2 _gf | "Ab7b9"ze3 d2 aa | 
"DbM7"f8 | z4 z2 zf | "Dm7"=d2 =ef z2 ga | "G7#5"zg3 zg fg | "Cm7"z2 GG zG =EG | 
z4 z2 GB | "Gm7"z4 z2 G=B | "G13"z4 z2 Gc | "C9sus"z2 =dB z2 cG | z2 "Gb13b5"z2 z4 :|

